src/components/00-materials/images-raw/Symbol Pounds.svg

<svg width="96" height="96" viewBox="0 0 96 96" fill="none" xmlns="http://www.w3.org/2000/svg">
<path d="M65 70H36C37.8908 65.3899 38.8198 60.442 38.73 55.46V53H52C52.7956 53 53.5587 52.6839 54.1213 52.1213C54.6839 51.5587 55 50.7956 55 50C55 49.2044 54.6839 48.4413 54.1213 47.8787C53.5587 47.3161 52.7956 47 52 47H38.73V36.06C38.73 30 42.92 25 48.08 25C53.24 25 57.42 30 57.42 36.06C57.42 37.2535 57.8941 38.3981 58.738 39.242C59.5819 40.0859 60.7265 40.56 61.92 40.56C63.1135 40.56 64.2581 40.0859 65.102 39.242C65.9459 38.3981 66.42 37.2535 66.42 36.06C66.42 25 58.19 16 48.08 16C37.97 16 30 24.94 30 36V47H26C25.2044 47 24.4413 47.3161 23.8787 47.8787C23.3161 48.4413 23 49.2044 23 50C23 50.7956 23.3161 51.5587 23.8787 52.1213C24.4413 52.6839 25.2044 53 26 53H30V55C29.9156 60.6109 28.2332 66.0814 25.15 70.77L24.32 72C23.87 72.6796 23.6126 73.4685 23.5751 74.2827C23.5376 75.0969 23.7215 75.9061 24.1072 76.6241C24.4929 77.3422 25.066 77.9423 25.7655 78.3606C26.4651 78.779 27.2649 78.9999 28.08 79H65C66.1935 79 67.3381 78.5259 68.182 77.682C69.0259 76.8381 69.5 75.6935 69.5 74.5C69.5 73.3065 69.0259 72.1619 68.182 71.318C67.3381 70.4741 66.1935 70 65 70V70Z" stroke="#00008F" stroke-width="2" stroke-miterlimit="10"/>
</svg>

<svg width="96" height="96" viewBox="0 0 96 96" fill="none" xmlns="http://www.w3.org/2000/svg"><path d="M65 70H36a36.58 36.58 0 002.73-14.54V53H52a3 3 0 000-6H38.73V36.06C38.73 30 42.92 25 48.08 25c5.16 0 9.34 5 9.34 11.06a4.5 4.5 0 109 0C66.42 25 58.19 16 48.08 16S30 24.94 30 36v11h-4a3 3 0 000 6h4v2a29.51 29.51 0 01-4.85 15.77L24.32 72a4.51 4.51 0 003.76 7H65a4.5 4.5 0 100-9v0z" stroke="#00008F" stroke-width="2" stroke-miterlimit="10"/></svg>
